packages/kaspersky-hexa-ui-icons/src/iconsSVGs/16/Dns.svg

<svg width="16" height="16" viewBox="0 0 16 16" fill="none" xmlns="http://www.w3.org/2000/svg">
<path d="M7.93492 1.00021C5.04109 1.02657 2.56676 2.80889 1.52586 5.33323H2.96098C3.57293 4.17926 4.56968 3.26062 5.78021 2.74831C5.69605 2.91192 5.61731 3.08335 5.54393 3.26097C5.2955 3.86228 5.09635 4.56386 4.9568 5.33323H6.28048C6.40093 4.73962 6.55939 4.20766 6.74542 3.75737C6.96356 3.22938 7.20682 2.84481 7.44369 2.6023C7.66205 2.37875 7.8397 2.3087 7.97114 2.29999L8 2.29992L8.02894 2.29999C8.16038 2.3087 8.33803 2.37876 8.55639 2.6023C8.79326 2.84481 9.03652 3.22938 9.25465 3.75737C9.44069 4.20766 9.59914 4.73962 9.71959 5.33323H11.0433C10.9037 4.56386 10.7046 3.86228 10.4561 3.26097C10.3828 3.08336 10.304 2.91195 10.2199 2.74835C11.4304 3.26067 12.4271 4.17929 13.039 5.33323H14.4741C13.4332 2.80891 10.959 1.02661 8.06518 1.00021C8.04359 0.999423 8.02187 0.999023 8.00004 0.999023C7.97821 0.999023 7.9565 0.999423 7.93492 1.00021Z" fill="black"/>
<path d="M7.93167 14.9996C5.03922 14.9719 2.56635 13.19 1.52584 10.6666H2.96095C3.5729 11.8205 4.56963 12.7392 5.78015 13.2515C5.69601 13.0879 5.6173 12.9165 5.54393 12.739C5.29548 12.1376 5.09633 11.436 4.95677 10.6666H6.28046C6.40091 11.2602 6.55937 11.7922 6.74542 12.2426C6.96356 12.7705 7.20682 13.1551 7.44369 13.3976C7.66124 13.6203 7.83837 13.6907 7.96967 13.6998L8 13.6999L8.03041 13.6998C8.16171 13.6907 8.33884 13.6203 8.55639 13.3976C8.79326 13.1551 9.03652 12.7705 9.25465 12.2426C9.4407 11.7922 9.59917 11.2602 9.71962 10.6666H11.0433C10.9037 11.436 10.7046 12.1376 10.4561 12.739C10.3828 12.9165 10.3041 13.0879 10.2199 13.2515C11.4304 12.7391 12.4271 11.8205 13.039 10.6666H14.4742C13.4337 13.19 10.9608 14.9719 8.06843 14.9996C8.04577 15.0005 8.02297 15.0009 8.00004 15.0009C7.97711 15.0009 7.95432 15.0005 7.93167 14.9996Z" fill="black"/>
<path fill-rule="evenodd" clip-rule="evenodd" d="M2 5.99995C1.72386 5.99995 1.5 6.2238 1.5 6.49995V9.49995C1.5 9.77609 1.72386 9.99995 2 9.99995H3.5C4.32843 9.99995 5 9.32837 5 8.49995V7.49995C5 6.67152 4.32843 5.99995 3.5 5.99995H2ZM2.5 8.99995V6.99995H3.5C3.77614 6.99995 4 7.2238 4 7.49995V8.49995C4 8.77609 3.77614 8.99995 3.5 8.99995H2.5Z" fill="black"/>
<path d="M6.61556 6.06546C6.81349 5.9938 7.03511 6.05379 7.16988 6.21551L8.78577 8.15457V6.5356C8.78577 6.25946 9.00963 6.0356 9.28577 6.0356C9.56191 6.0356 9.78577 6.25946 9.78577 6.5356V9.5356C9.78577 9.74611 9.65392 9.93407 9.45598 10.0057C9.25804 10.0774 9.03642 10.0174 8.90166 9.85569L7.28577 7.91662V9.5356C7.28577 9.81174 7.06191 10.0356 6.78577 10.0356C6.50963 10.0356 6.28577 9.81174 6.28577 9.5356V6.5356C6.28577 6.32509 6.41762 6.13713 6.61556 6.06546Z" fill="black"/>
<path d="M12.25 5.99995C11.5596 5.99995 11 6.55959 11 7.24995C11 7.9403 11.5596 8.49995 12.25 8.49995H13.25C13.3881 8.49995 13.5 8.61188 13.5 8.74995C13.5 8.88802 13.3881 8.99995 13.25 8.99995H11.5C11.2239 8.99995 11 9.2238 11 9.49995C11 9.77609 11.2239 9.99995 11.5 9.99995H13.25C13.9404 9.99995 14.5 9.4403 14.5 8.74995C14.5 8.05959 13.9404 7.49995 13.25 7.49995H12.25C12.1119 7.49995 12 7.38802 12 7.24995C12 7.11188 12.1119 6.99995 12.25 6.99995H14C14.2761 6.99995 14.5 6.77609 14.5 6.49995C14.5 6.2238 14.2761 5.99995 14 5.99995H12.25Z" fill="black"/>
</svg>

<svg xmlns="http://www.w3.org/2000/svg" width="16" height="16" fill="none" viewBox="0 0 16 16"><path fill="#000" fill-rule="evenodd" d="M7.935 1.0002c-2.8939.0264-5.3682 1.8087-6.4091 4.333h1.435c.612-1.154 1.6088-2.0726 2.8193-2.5849a6.8 6.8 0 0 0-.2363.5127c-.2484.6013-.4476 1.3029-.5871 2.0722h1.3237c.1204-.5936.2789-1.1255.465-1.5758.218-.528.4613-.9126.6982-1.1551.2184-.2235.396-.2936.5274-.3023h.0579c.1314.0087.309.0788.5274.3023.2369.2425.4801.627.6983 1.155.186.4504.3444.9823.4649 1.576h1.3237c-.1396-.7694-.3387-1.471-.5872-2.0723a6.8 6.8 0 0 0-.2362-.5126c1.2105.5123 2.2072 1.4309 2.8191 2.5848h1.4351c-1.0408-2.5243-3.5151-4.3066-6.409-4.333a1.8 1.8 0 0 0-.1302 0m4.315 4.9997C11.5596 6 11 6.5596 11 7.25s.5596 1.25 1.25 1.25h1a.25.25 0 1 1 0 .5H11.5a.5.5 0 0 0 0 1h1.75c.6904 0 1.25-.5596 1.25-1.25s-.5596-1.25-1.25-1.25h-1a.25.25 0 1 1 0-.5H14a.5.5 0 0 0 0-1zM1.5 6.5A.5.5 0 0 1 2 6h1.5C4.3284 6 5 6.6715 5 7.5v1c0 .8285-.6716 1.5-1.5 1.5H2a.5.5 0 0 1-.5-.5zm5.6699-.2844a.5.5 0 0 0-.8841.3201v3a.5.5 0 0 0 1 0v-1.619l1.6159 1.939a.5.5 0 0 0 .884-.32v-3a.5.5 0 1 0-1 0v1.619zM2.5 6.9999v2h1a.5.5 0 0 0 .5-.5v-1a.5.5 0 0 0-.5-.5zm5.4317 7.9997c-2.8925-.0277-5.3654-1.8096-6.4059-4.333H2.961c.6119 1.1539 1.6086 2.0726 2.8191 2.5849a6.8 6.8 0 0 1-.2362-.5126c-.2484-.6013-.4476-1.3029-.5871-2.0723h1.3237c.1204.5936.2789 1.1256.465 1.576.218.5279.4613.9125.6982 1.155.2175.2227.3947.2931.526.3022L8 13.6999l.0304-.0001c.1313-.0091.3084-.0795.526-.3022.2369-.2425.4801-.6271.6983-1.155.186-.4504.3445-.9824.465-1.576h1.3236c-.1395.7694-.3387 1.471-.5872 2.0723a6.7 6.7 0 0 1-.2362.5125c1.2105-.5123 2.2072-1.4309 2.8191-2.5848h1.4352c-1.0405 2.5234-3.5134 4.3053-6.4058 4.333a1.7 1.7 0 0 1-.1367 0"/></svg>
